X: 147
T:Rosie Finn's
M:6/8
L:1/8
R:Jig
O:Ireland
Z:John Harvey
K:D
D2F A2d|f2d A2F|GFE edc|dcB AFE|\
D2F A2d|f2d A2F|GFE edc|d3 d2::A|\
d2f g2f|e2B B2d|c2e efd|c2A ABc|\
d2f g2f|e2B B2d|cec ABc|d3 d2:|

